X: 1
T: Tom Steele
C: Muriel Johnstone
R: strathspey
B:
Z: 2005 John Chambers <jc:trillian.mit.edu>
M: C
L: 1/8
K: F
C \
|  "F"F<F    A>F "Bb"B>G "C7"EC |  "F"F<F     A>F "F7"c>F f>c \
| "Bb"d>B "F"c>A "Gm"B>G "C"E<C | "Dm"F>G "G7"A<F "C7"G2  c2  |
|  "F"F<F    A>F "Bb"B>G "C7"EC |  "F"F<F     A>F "F7"c>F f>c \
| "Bb"(3dbd "F"(3cac "Gm"B>G "C"E<C | "Dm"F>G A>G "F"F2 f2 ||
|| "F"a2 "A7"a>g "Dm"f<d d2 | "G 7"(3G=Bd g>f "C"ec "F7"c>_e \
| "Bb"d<B B>d "F"c<A A>c | "Gm"d<D D>F "C7"E>C B>G |
| "F7"A<F A>c "Bb"d<B B2 | "G7"(3DG=B d>g "C7"ec c>e \
| "Dm"(3fed "F"(3cd_e "Bb"(3dcB "F"(3ABc \
| "Gm"B>G "C7"E<C "F"F2 F |]
